static/assets/img/icons/theme/food/two-bottles.svg

<svg height="24" viewBox="0 0 24 24" width="24" xmlns="http://www.w3.org/2000/svg"><g fill="none" fill-rule="evenodd"><path d="m0 0h24v24h-24z" opacity="0"/><g fill="#000"><path d="m11 12h-9v-1c0-1.65685425 1.34314575-3 3-3h3c1.65685425 0 3 1.34314575 3 3zm0 2v6c0 .5522847-.4477153 1-1 1h-7c-.55228475 0-1-.4477153-1-1v-6z"/><path d="m22 12h-9v-1c0-1.65685425 1.3431458-3 3-3h3c1.6568542 0 3 1.34314575 3 3zm0 2v6c0 .5522847-.4477153 1-1 1h-7c-.5522847 0-1-.4477153-1-1v-6zm-17-11h3c.55228475 0 1 .44771525 1 1v1c0 .55228475-.44771525 1-1 1h-3c-.55228475 0-1-.44771525-1-1v-1c0-.55228475.44771525-1 1-1zm11 0h3c.5522847 0 1 .44771525 1 1v1c0 .55228475-.4477153 1-1 1h-3c-.5522847 0-1-.44771525-1-1v-1c0-.55228475.4477153-1 1-1z" opacity=".3"/></g></g></svg>

<svg width="24px" height="24px" viewBox="0 0 24 24" version="1.1" xmlns="http://www.w3.org/2000/svg" xmlns:xlink="http://www.w3.org/1999/xlink">
    <title>Icon For Two-bottles</title>
    <g stroke="none" stroke-width="1" fill="none" fill-rule="evenodd">
        <rect opacity="0" x="0" y="0" width="24" height="24"></rect>
        <path d="M11,12 L2,12 L2,11 C2,9.34314575 3.34314575,8 5,8 L8,8 C9.65685425,8 11,9.34314575 11,11 L11,12 Z M11,14 L11,20 C11,20.5522847 10.5522847,21 10,21 L3,21 C2.44771525,21 2,20.5522847 2,20 L2,14 L11,14 Z" fill="#000000"></path>
        <path d="M22,12 L13,12 L13,11 C13,9.34314575 14.3431458,8 16,8 L19,8 C20.6568542,8 22,9.34314575 22,11 L22,12 Z M22,14 L22,20 C22,20.5522847 21.5522847,21 21,21 L14,21 C13.4477153,21 13,20.5522847 13,20 L13,14 L22,14 Z M5,3 L8,3 C8.55228475,3 9,3.44771525 9,4 L9,5 C9,5.55228475 8.55228475,6 8,6 L5,6 C4.44771525,6 4,5.55228475 4,5 L4,4 C4,3.44771525 4.44771525,3 5,3 Z M16,3 L19,3 C19.5522847,3 20,3.44771525 20,4 L20,5 C20,5.55228475 19.5522847,6 19,6 L16,6 C15.4477153,6 15,5.55228475 15,5 L15,4 C15,3.44771525 15.4477153,3 16,3 Z" fill="#000000" opacity="0.3"></path>
    </g>
</svg>
